lib/healthicons/icons/solid/symbols/negative.svg

<svg fill="none" height="48" viewBox="0 0 48 48" width="48" xmlns="http://www.w3.org/2000/svg"><path clip-rule="evenodd" d="m24 44c11.0457 0 20-8.9543 20-20s-8.9543-20-20-20-20 8.9543-20 20 8.9543 20 20 20zm-10-21c-.5523 0-1 .4477-1 1s.4477 1 1 1h20c.5523 0 1-.4477 1-1s-.4477-1-1-1z" fill="#333" fill-rule="evenodd"/></svg>

<svg width="48" height="48" viewBox="0 0 48 48" fill="none" xmlns="http://www.w3.org/2000/svg">
<path fill-rule="evenodd" clip-rule="evenodd" d="M24 44C35.0457 44 44 35.0457 44 24C44 12.9543 35.0457 4 24 4C12.9543 4 4 12.9543 4 24C4 35.0457 12.9543 44 24 44ZM14 23C13.4477 23 13 23.4477 13 24C13 24.5523 13.4477 25 14 25H34C34.5523 25 35 24.5523 35 24C35 23.4477 34.5523 23 34 23H14Z" fill="#333333"/>
</svg>
